X:012
T:Ratcatcher's Daughter. WES.012, The 
M:2/4
L:1/8
R:Country Dance
Q:1/4=120
B:T.Westrop’s 120 Country Dances, 1860’s
Z:VMP-R.Greig 2010
K:C
G|edce|AcGc|BGce|ed2g/f/|egce|AcGc|Bgfd|dc2:|
c|eddd|feee|g^fff|gG2g/=f/|egcg|AcGc|Bgfd|dc2 :|

